X:2
T:Speed The Plough
M:4/4
L:1/8
R:Reel
Z:Steve Mansfield October 2000
K:G
GABc dedB | dedB dedB | c2 ec B2 dB | A2 A2 A4 | GABc dedB | dedB dedB | 
c2 ec B2 dB | AGFA G4 :: g2 g2 g4 | g2 fe dB G2 | c2 ec B2 dB | 
A2 A2 A4 | g2 g2 g4 | g2 fe dB G2 | c2 ec B2 dB | AGFA G4 :|
<end>
<start>
